X: 4031
M: C|
L: 1/8
K: A
u(cd) |\
ecBc A2(cA) | FAEA FAEA |\
ecBc A2(cA) | FBBA B2 ::\
(cB) |\
[1 ABcd ecaf | ecAc B2 :|\
[2 ABAF ECEA | ceBc A2 |]


